X:1
T:Jazz Pentatonics
Q:1/4=120
L:1/4
M:4/4
K:C
CDEGAc|CDEG_Bc|
"B-7b5" GABdfg|"B-7b5" GABdeg|
"Cmaj7" DE^FABd|"Cmaj7" DE^FAcd|
"D-7" FGACDF|"D-7" GABdfg|
"G7" AB^cega|"G7" GABdfg|
"GAlt" _D_EF_AB_d|"GAlt" _EFG_B_d_e|
"Gsus" CDEGAc|"Gsus" AB^cega|

